icons/2_Variations/sipgate bg.var.svg

<svg width="1024" height="1024" viewBox="0 0 1024 1024" fill="none" xmlns="http://www.w3.org/2000/svg">
<g clip-path="url(#clip0_3_245)">
<path d="M512 1024C794.77 1024 1024 794.77 1024 512C1024 229.23 794.77 0 512 0C229.23 0 0 229.23 0 512C0 794.77 229.23 1024 512 1024Z" fill="#728DBE"/>
<path d="M667.73 522.94L427 574L596.68 450.68L678.17 391.44C661.48 313.85 592.79 256 510.75 256C416.19 256 339.43 332.76 339.43 427.32C339.38 457.424 347.35 486.998 362.52 513C377.483 538.889 398.925 560.439 424.74 575.53L345.83 632.87C354.044 671.159 375.152 705.469 405.625 730.065C436.098 754.66 474.09 768.051 513.25 768C607.81 768 684.57 691.24 684.57 597C684.607 571.36 678.85 546.043 667.73 522.94Z" fill="white"/>
</g>
<defs>
<clipPath id="clip0_3_245">
<rect width="1024" height="1024" fill="white"/>
</clipPath>
</defs>
</svg>

<svg xmlns="http://www.w3.org/2000/svg" width="1024" height="1024" fill="none">
   <g clip-path="url(#a)">
      <path fill="#728DBE" d="M512 1024c282.77 0 512-229.23 512-512S794.77 0 512 0 0 229.23 0 512s229.23 512 512 512Z"/>
      <path fill="#fff" d="M667.73 522.94 427 574l169.68-123.32 81.49-59.24C661.48 313.85 592.79 256 510.75 256c-94.56 0-171.32 76.76-171.32 171.32A169.467 169.467 0 0 0 362.52 513a172.3 172.3 0 0 0 62.22 62.53l-78.91 57.34A171 171 0 0 0 513.25 768c94.56 0 171.32-76.76 171.32-171a170.198 170.198 0 0 0-16.84-74.06Z"/>
   </g>
   <defs>
      <clipPath id="a">
         <path fill="#fff" d="M0 0h1024v1024H0z"/>
      </clipPath>
   </defs>
</svg>
